src/xmb/monochrome/Sony - PlayStation Vita (PSN) (Content).svg

<svg xmlns="http://www.w3.org/2000/svg" xml:space="preserve" id="svg5145" x="0" y="0" version="1.1" viewBox="0 0 64 64"><style>.st0{fill:#fff}</style><g id="g5153" transform="matrix(1.25 0 0 -1.25 0 64)"><g id="g5155" transform="scale(.8)"><g id="g5157"><g id="g5163" transform="translate(56 35)"><path id="path5165" d="M0 0c-.55 0-1 .45-1 1s.45 1 1 1 1-.45 1-1-.45-1-1-1m-2-2c-.55 0-1 .45-1 1s.45 1 1 1 1-.45 1-1-.45-1-1-1m0-8c-.55 0-1 .22-1 .5s.45.5 1 .5 1-.22 1-.5-.45-.5-1-.5m-4-4c0 2 4 2 4 2-1-2-4-2-4-2m1 5c.55 0 1-.22 1-.5s-.45-.5-1-.5-1 .22-1 .5.45.5 1 .5m-.5 14c.28 0 .5-.22.5-.5s-.22-.5-.5-.5-.5.22-.5.5.22.5.5.5M-2-5.5C-2-6.33-2.67-7-3.5-7S-5-6.33-5-5.5-4.33-4-3.5-4-2-4.67-2-5.5m-2 7.46c.55 0 1-.45 1-1s-.45-1-1-1-1 .45-1 1 .45 1 1 1M-2 4c.55 0 1-.45 1-1s-.45-1-1-1-1 .45-1 1 .45 1 1 1m-6-16h-32V7h32zm-38 0s3 0 4-2c0 0-3 0-4 2m-1 3c0 .55.9 1 2 1s2-.45 2-1-.9-1-2-1-2 .45-2 1m-1.25 9-.05.1c-.26.56-.26 1.23 0 1.79l.05.11h1.41l.77-.82c.09-.1.09-.26 0-.35l-.77-.83zm1.75 3.75.1.05c.56.26 1.23.26 1.79 0l.1-.05V2.34l-.82-.77c-.1-.09-.26-.09-.35 0l-.82.77zm.1-5.55-.1.05v1.41l.82.77c.1.09.26.09.35 0l.82-.77v-1.41l-.1-.05a2.08 2.08 0 0 0-1.79 0m1.9-2.2c.83 0 1.5-.67 1.5-1.5S-43.67-7-44.5-7s-1.5.67-1.5 1.5.67 1.5 1.5 1.5m1.75 6 .05-.11c.26-.56.26-1.23 0-1.79l-.05-.1h-1.41l-.77.82c-.09.1-.09.26 0 .35l.77.83zM-.73 6.23C-3.52 9-8 9-8 9h-32s-4.48 0-7.28-2.77c0 0-3.72-2.77-3.72-7.39V-4c0-.63.08-1.26.24-1.87.39-1.47 1.24-4.14 2.55-5.45 0 0 .93-1.85 3.72-2.77 2.8-.91 4.66-.91 4.66-.91h31.66s1.86 0 4.66.92S.21-11.31.21-11.31c1.31 1.3 2.16 3.98 2.55 5.45Q3-4.945 3-4v3C3 3.61-.72 6.23-.73 6.23" class="st0"/></g></g></g></g><path d="M32 31.5h-6l3-6zm.03 4L35 32.53l2.97 2.97L35 38.47z" class="st0"/><circle cx="35" cy="28.5" r="3" class="st0"/><path d="M32 32.5h-1.1L29 34.4l-1.9-1.9H26v1.1l1.9 1.9-1.9 1.9v1.1h1.1l1.9-1.9 1.9 1.9H32v-1.1l-1.9-1.9 1.9-1.9z" class="st0"/></svg>

<?xml version="1.0" encoding="utf-8"?>
<!-- Generator: Adobe Illustrator 25.0.0, SVG Export Plug-In . SVG Version: 6.00 Build 0)  -->
<svg version="1.1"
	 id="svg5145" inkscape:export-filename="/Users/margetts/Desktop/Icon Workshop/Monochrome Plus June/png/Sony - PlayStation Vita.png" inkscape:export-ydpi="360" xmlns:cc="http://creativecommons.org/ns#" xmlns:dc="http://purl.org/dc/elements/1.1/" xmlns:inkscape="http://www.inkscape.org/namespaces/inkscape" xmlns:rdf="http://www.w3.org/1999/02/22-rdf-syntax-ns#" xmlns:sodipodi="http://sodipodi.sourceforge.net/DTD/sodipodi-0.dtd" xmlns:svg="http://www.w3.org/2000/svg"
	 xmlns="http://www.w3.org/2000/svg" xmlns:xlink="http://www.w3.org/1999/xlink" x="0px" y="0px" viewBox="0 0 64 64"
	 style="enable-background:new 0 0 64 64;" xml:space="preserve">
<style type="text/css">
	.st0{fill:#FFFFFF;}
</style>
<sodipodi:namedview  bordercolor="#666666" borderopacity="1" gridtolerance="10" guidetolerance="10" id="namedview5147" inkscape:current-layer="g5153" inkscape:cx="6.9736842" inkscape:cy="40" inkscape:pageopacity="0" inkscape:pageshadow="2" inkscape:window-height="1005" inkscape:window-maximized="1" inkscape:window-width="1676" inkscape:window-x="4" inkscape:window-y="1" inkscape:zoom="3.8" objecttolerance="10" pagecolor="#808080" showgrid="false">
	</sodipodi:namedview>
<g id="g5153" transform="matrix(1.25,0,0,-1.25,0,64)" inkscape:groupmode="layer" inkscape:label="Sony - PlayStation Vita">
	<g id="g5155" transform="scale(0.8,0.8)">
		<g>
			<g>
				<g id="g5157">
					<g id="g5163" transform="translate(56,35)">
						<path id="path5165" inkscape:connector-curvature="0" class="st0" d="M0,0c-0.55,0-1,0.45-1,1s0.45,1,1,1s1-0.45,1-1
							S0.55,0,0,0 M-2-2c-0.55,0-1,0.45-1,1s0.45,1,1,1s1-0.45,1-1S-1.45-2-2-2 M-2-10c-0.55,0-1,0.22-1,0.5S-2.55-9-2-9
							s1-0.22,1-0.5S-1.45-10-2-10 M-6-14c0,2,4,2,4,2C-3-14-6-14-6-14 M-5-9c0.55,0,1-0.22,1-0.5S-4.45-10-5-10s-1,0.22-1,0.5
							S-5.55-9-5-9 M-5.5,5C-5.22,5-5,4.78-5,4.5S-5.22,4-5.5,4S-6,4.22-6,4.5S-5.78,5-5.5,5 M-2-5.5C-2-6.33-2.67-7-3.5-7
							S-5-6.33-5-5.5S-4.33-4-3.5-4S-2-4.67-2-5.5 M-4,1.96c0.55,0,1-0.45,1-1s-0.45-1-1-1s-1,0.45-1,1S-4.55,1.96-4,1.96 M-2,4
							c0.55,0,1-0.45,1-1s-0.45-1-1-1s-1,0.45-1,1S-2.55,4-2,4 M-8-12h-32V7h32V-12z M-46-12c0,0,3,0,4-2C-42-14-45-14-46-12 M-47-9
							c0,0.55,0.9,1,2,1s2-0.45,2-1s-0.9-1-2-1S-47-9.55-47-9 M-48.25,0l-0.05,0.1c-0.26,0.56-0.26,1.23,0,1.79L-48.25,2h1.41
							l0.77-0.82c0.09-0.1,0.09-0.26,0-0.35L-46.84,0H-48.25z M-46.5,3.75l0.1,0.05c0.56,0.26,1.23,0.26,1.79,0l0.1-0.05V2.34
							l-0.82-0.77c-0.1-0.09-0.26-0.09-0.35,0l-0.82,0.77V3.75z M-46.4-1.8l-0.1,0.05v1.41l0.82,0.77c0.1,0.09,0.26,0.09,0.35,0
							l0.82-0.77v-1.41l-0.1-0.05C-45.17-2.07-45.83-2.07-46.4-1.8 M-44.5-4c0.83,0,1.5-0.67,1.5-1.5S-43.67-7-44.5-7
							S-46-6.33-46-5.5S-45.33-4-44.5-4 M-42.75,2l0.05-0.11c0.26-0.56,0.26-1.23,0-1.79L-42.75,0h-1.41l-0.77,0.82
							c-0.09,0.1-0.09,0.26,0,0.35L-44.16,2H-42.75z M-0.73,6.23C-3.52,9-8,9-8,9h-32c0,0-4.48,0-7.28-2.77c0,0-3.72-2.77-3.72-7.39
							V-4c0-0.63,0.08-1.26,0.24-1.87c0.39-1.47,1.24-4.14,2.55-5.45c0,0,0.93-1.85,3.72-2.77C-41.69-15-39.83-15-39.83-15h31.66
							c0,0,1.86,0,4.66,0.92s3.72,2.77,3.72,2.77c1.31,1.3,2.16,3.98,2.55,5.45C2.92-5.25,3-4.63,3-4v3C3,3.61-0.72,6.23-0.73,6.23"
							/>
					</g>
				</g>
			</g>
		</g>
	</g>
</g>
<polygon class="st0" points="32,31.5 26,31.5 29,25.5 "/>
<rect x="32.9" y="33.4" transform="matrix(0.7071 -0.7071 0.7071 0.7071 -14.8507 35.1463)" class="st0" width="4.2" height="4.2"/>
<circle class="st0" cx="35" cy="28.5" r="3"/>
<polygon class="st0" points="32,32.5 30.9,32.5 29,34.4 27.1,32.5 26,32.5 26,33.6 27.9,35.5 26,37.4 26,38.5 27.1,38.5 29,36.6 
	30.9,38.5 32,38.5 32,37.4 30.1,35.5 32,33.6 "/>
</svg>
